X:1
T:Title
%%score { ( 1 3 ) | ( 2 4 ) }
L:1/8
Q:1/4=100
M:4/4
K:Ab
V:1 treble nm="Grand Piano"
V:3 treble 
V:2 bass 
V:4 bass 
V:1
 c2 d2 c3 F | [FA]2 G2 F4 | F3 [EG] [EA]2 [Ec]2 | z4 c4 | c2 d2 c3 F | [FA]2 [=EG]2 F4 | %6
w: Robert~Harkness * * *||||||
 F3 [EG] [FA]2 [Fc]2 | [CFA]2 [B,=EG]2 [A,F]4 |] %8
w: ||
V:2
 [F,A,F]2 [F,B,F]2 [F,A,F]3 [F,A,] | [C,C]2 [C,B,C]2 [F,A,C]4 | [D,A,D]3 [D,B,] [C,A,]2 [A,,A,]2 | %3
 [D,F,]2 [D,G,]2 [C,G,]4 | [F,A,F]2 [F,B,F]2 [F,A,F]3 [F,A,] | [C,C]2 [C,B,]2 [D,A,]4 | %6
 [D,A,D]3 [D,B,] [C,C]2 A,B, | C,2 C,2 F,4 |] %8
V:3
 x8 | x8 | x8 | [Fc]2 [FB]2 F2 =E2 | x8 | x8 | x8 | x8 |] %8
V:4
 x8 | x8 | x8 | x8 | x8 | x8 | z4 z2 C,2 | x8 |] %8

